X:1
T:Total Eclipse
T:Total Eclipse
T:Nicholas Brady, 1700
T:George Handel, 1741, & Richard W. Adams, 2017
T:© 2017 Richard W. Adams. Reproduce or publish freely for Christian worship or devotions. Courtesy of the Cyber Hymnal™
T:© 2017 Richard W. Adams. Reproduce or publish freely for Christian worship or devotions. Courtesy of the Cyber Hymnal™
C:Nicholas Brady, 1700
Z:© 2017 Richard W. Adams. Reproduce or publish freely for Christian worship or devotions.
Z:Courtesy of the Cyber Hymnal™
%%score ( 1 2 ) ( 3 4 )
L:1/8
Q:1/4=110
M:4/4
K:Eb
V:1 treble 
V:2 treble 
V:3 bass 
V:4 bass 
V:1
 [CG]4 | C2 D2 E2 C2 | c2 (z [EG]4) x | [B,E]4 [FA]2 [EG]2 | [DF]2 [CE]2 [CF]2 [=B,D]2 | C6 [EG]2 | %6
w: 1.~To-|tal e- clipse! No|sun, *|no moon! All|dark a- midst the|blaze of|
w: 2.~I|search God’s Word, and|there *|I see The|day will come when|signs these|
w: 3.~O|Lord, You are our|strength *|and stay, Pro-|tect us in that|aw- ful|
w: 4.~But|those who call up-|on *|the Lord, His|arm will save, will|help af-|
 [FB]2 =A2 [Gd]2 [EG]2 | [DG]2 [D^F]2 [DG]4- | [DG]2 [EB]2 [EF]2 [EG]2 | A2 [EG]2 [EF]2 [DF]2 x | %10
w: noon! Oh, glor- ious|light! No cheer-|* ing ray To|glad my eyes with|
w: be; The moon con-|found- ed, sun|* a- shamed, The|stars with- drawn, the|
w: day; When heav’n de-|parts, a worn|* out scroll, When|is- lands move from|
w: ford; He is a|re- fuge, co-|* vert, tower, Not|hell or earth can|
 E4 [DF]4 | [EG]2 [B,E]2 [FB]2 B2 | [EB]2 [F=A]2 [FB]4 | [EG]4 [Ec]2 [Fd]2 | %14
w: wel- come|day! Why thus de-|prived Thy prime|de- cree? Sun,|
w: heav’ns in|flame; The o- ceans|roar as na-|tions fight, And|
w: pole to|pole; When rocks and|moun- tains can-|not save The|
w: o- ver-|power; For those washed|clean in Je-|sus’ blood, He|
 [D=B]2 [Ec]2 [Dc]2 [DB]2 | [Ec]4 |] %16
w: moon, and stars are|dark|
w: clouds and smoke turn|day|
w: guilt- y from the|yawn-|
w: keeps them safe a-|bove|
V:2
 x4 | C2 D2 E2 C2 | E3 (A2 D) x2 | x8 | x8 | C6 x2 | x2 =A2 x4 | x8 | x8 | (ED) x7 | E4 x4 | %11
 x6 (GF) | x8 | x8 | x8 | x4 |] %16
V:3
 [C,E,]4 | [C,E,]2 [=B,,G,]2 [C,G,]2 [C,E,]2 | [A,,E,]2 [F,,F,]2 [C,G,]4 | %3
 [E,G,]4 [D,B,]2 [E,B,]2 | [=B,,G,]2 [C,G,]2 [F,A,]2 G,2 | [C,E,]6 [C,C]2 | %6
 [D,B,]2 [C,E]2 [B,,D]2 (CB,) | [D,=A,]2 [D,A,]2 [G,B,]4- | [G,B,]2 [G,B,]2 [A,C]2 [G,B,]2 | %9
 [F,A,]2 [E,B,]2 B,3 z A, | [E,G,]4 [B,,B,]4 | [E,B,]2 [E,G,]2 [D,F,]2 B,2 | %12
 [C,E]2 [F,C]2 [B,,D]4 | [E,B,]4 A,2 [F,A,]2 | G,2 [C,G,]2 G,2 [G,,G,]2 | [C,G,]4 |] %16
V:4
 x4 | x8 | x8 | x8 | x6 G,2 | x8 | x6 C,2 | x8 | x8 | x4 B,,2 B,,2 x | x8 | x6 (E,D,) | x8 | %13
 x4 A,2 x2 | G,2 G,2 x4 | x4 |] %16

